local/share/icons/dracula-icons-main/scalable/apps/distributor-logo-ubuntu-mate.svg

<?xml version="1.0" encoding="UTF-8"?>
<svg xmlns="http://www.w3.org/2000/svg" xmlns:xlink="http://www.w3.org/1999/xlink" width="64" height="64" viewBox="0 0 64 64">
<path fill-rule="nonzero" fill="rgb(52.941176%, 64.705882%, 33.72549%)" fill-opacity="1" d="M 8.378906 1.324219 C 10.953125 1.292969 13.34375 2.648438 14.640625 4.871094 C 15.933594 7.09375 15.933594 9.839844 14.640625 12.0625 C 13.34375 14.285156 10.953125 15.640625 8.378906 15.609375 C 4.46875 15.5625 1.324219 12.378906 1.324219 8.464844 C 1.324219 4.554688 4.46875 1.371094 8.378906 1.324219 Z M 8.378906 1.324219 "/>
<path fill-rule="nonzero" fill="rgb(100%, 100%, 100%)" fill-opacity="1" d="M 9.523438 4.234375 L 9.523438 6.773438 L 11.640625 5.503906 Z M 8.679688 4.65625 C 7.097656 4.65625 5.683594 5.632812 5.121094 7.109375 L 5.492188 7.332031 C 5.972656 5.984375 7.246094 5.082031 8.679688 5.078125 C 8.820312 5.082031 8.960938 5.089844 9.101562 5.109375 L 9.101562 4.683594 C 8.960938 4.667969 8.820312 4.660156 8.679688 4.65625 Z M 8.679688 5.925781 C 7.542969 5.925781 6.542969 6.683594 6.234375 7.777344 L 6.613281 8.003906 C 6.832031 7.039062 7.6875 6.351562 8.679688 6.351562 C 8.820312 6.351562 8.964844 6.363281 9.101562 6.394531 L 9.101562 5.964844 C 8.964844 5.9375 8.820312 5.925781 8.679688 5.925781 Z M 11.597656 6.023438 L 11.230469 6.246094 C 11.765625 6.859375 12.0625 7.648438 12.066406 8.46875 C 12.0625 9.285156 11.769531 10.074219 11.230469 10.691406 L 11.597656 10.910156 C 12.171875 10.226562 12.488281 9.359375 12.488281 8.46875 C 12.488281 7.574219 12.171875 6.707031 11.597656 6.023438 Z M 10.488281 6.6875 L 10.113281 6.914062 C 10.546875 7.3125 10.792969 7.875 10.796875 8.46875 C 10.792969 9.054688 10.546875 9.617188 10.113281 10.019531 L 10.488281 10.246094 C 10.957031 9.769531 11.21875 9.132812 11.21875 8.464844 C 11.21875 7.800781 10.957031 7.164062 10.488281 6.6875 Z M 4.445312 7.195312 L 4.445312 9.738281 L 6.5625 8.46875 Z M 6.613281 8.929688 L 6.234375 9.15625 C 6.542969 10.25 7.539062 11.007812 8.679688 11.007812 C 8.820312 11.007812 8.960938 10.992188 9.101562 10.96875 L 9.101562 10.539062 C 8.960938 10.566406 8.820312 10.582031 8.679688 10.582031 C 7.6875 10.582031 6.832031 9.894531 6.613281 8.929688 Z M 5.492188 9.601562 L 5.121094 9.824219 C 5.683594 11.296875 7.097656 12.273438 8.679688 12.277344 C 8.820312 12.277344 8.960938 12.265625 9.101562 12.25 L 9.101562 11.824219 C 8.960938 11.84375 8.820312 11.851562 8.679688 11.851562 C 7.246094 11.851562 5.972656 10.949219 5.492188 9.601562 Z M 9.523438 10.160156 L 9.523438 12.699219 L 11.640625 11.429688 Z M 9.523438 10.160156 "/>
</svg>

<svg width="64" height="64" version="1.1" viewBox="0 0 16.933 16.933" xmlns="http://www.w3.org/2000/svg">
 <g transform="matrix(1.0385 0 0 1.0385 -.41232 -.32567)" stroke-width=".92729">
  <path d="m8.467 1.588a6.879 6.879 0 1 1 0 13.757 6.879 6.879 0 0 1 0-13.757z" fill="#87a556"/>
 </g>
 <path d="M9.525 4.233v2.54l2.117-1.27zm-.847.424A3.81 3.81 0 0 0 5.12 7.108l.372.223A3.387 3.387 0 0 1 8.678 5.08a3.387 3.387 0 0 1 .424.03v-.425a3.81 3.81 0 0 0-.424-.028zm0 1.27a2.54 2.54 0 0 0-2.444 1.85l.38.227A2.117 2.117 0 0 1 8.679 6.35a2.117 2.117 0 0 1 .424.043v-.43a2.54 2.54 0 0 0-.424-.036zm2.921.095l-.37.223a3.387 3.387 0 0 1 .836 2.222 3.387 3.387 0 0 1-.834 2.223l.366.22a3.81 3.81 0 0 0 .891-2.443 3.81 3.81 0 0 0-.889-2.445zm-1.11.666l-.376.226a2.117 2.117 0 0 1 .682 1.553 2.117 2.117 0 0 1-.681 1.552l.376.227a2.54 2.54 0 0 0 .728-1.78 2.54 2.54 0 0 0-.729-1.778zm-6.044.509v2.54l2.117-1.27zm2.17 1.731l-.38.227a2.54 2.54 0 0 0 2.443 1.852 2.54 2.54 0 0 0 .424-.038v-.43a2.117 2.117 0 0 1-.424.044 2.117 2.117 0 0 1-2.063-1.655zm-1.124.675l-.368.22a3.81 3.81 0 0 0 3.555 2.454 3.81 3.81 0 0 0 .424-.026v-.428a3.387 3.387 0 0 1-.424.03 3.387 3.387 0 0 1-3.187-2.25zm4.034.557v2.54l2.117-1.27z" fill="#fff"/>
</svg>
